packages/icons/web/bitcoin_large.svg

<svg width="24" height="24" viewBox="0 0 24 24" fill="none" xmlns="http://www.w3.org/2000/svg">
<path d="M21.7006 14.4193C20.3644 19.7764 14.9387 23.0364 9.57974 21.7011C4.22361 20.365 0.962694 14.9393 2.29982 9.58222C3.63409 4.22418 9.06165 0.963269 14.4178 2.29944C19.7758 3.63562 23.0367 9.06127 21.7006 14.4193Z" fill="#F5922F"/>
<path d="M16.3453 10.5698C16.5357 9.23835 15.5662 8.52312 14.2405 8.04598L14.671 6.2441L13.6215 5.97077L13.2024 7.72504C12.9232 7.65329 12.6431 7.58439 12.3625 7.51837L12.7834 5.75172L11.7348 5.47839L11.3044 7.28028C11.0803 7.22764 10.8568 7.17272 10.6339 7.11552L10.6358 7.1098L9.1882 6.73267L8.90821 7.90408C8.90821 7.90408 9.68725 8.09075 9.6701 8.10217C10.0958 8.2136 10.173 8.50693 10.1596 8.74026L9.6701 10.7936C9.69963 10.8012 9.73677 10.8126 9.77962 10.8307L9.6682 10.8021L8.98249 13.6783C8.93011 13.8135 8.79868 14.0154 8.50154 13.9383C8.51107 13.9545 7.73774 13.7393 7.73774 13.7393L7.2168 14.9964L8.58345 15.3516C8.83678 15.4183 9.0863 15.4878 9.33106 15.5535L8.89678 17.3764L9.94534 17.6497L10.3758 15.8459C10.6615 15.9278 10.9396 16.0021 11.212 16.0726L10.7834 17.8687L11.8329 18.1421L12.2672 16.3221C14.0577 16.6764 15.4034 16.5335 15.97 14.8411C16.4262 13.4793 15.9472 12.6926 15.0053 12.1802C15.691 12.0145 16.2072 11.5431 16.3453 10.5698ZM13.9472 14.084C13.6234 15.4469 11.4282 14.7107 10.7168 14.5259L11.2929 12.1107C12.0044 12.2964 14.2862 12.6631 13.9472 14.085V14.084ZM14.271 10.5498C13.9758 11.7888 12.1491 11.1593 11.5567 11.005L12.0796 8.81455C12.672 8.96883 14.5805 9.25645 14.272 10.5498H14.271Z" fill="white"/>
</svg>

<svg width="24" height="24" fill="none" xmlns="http://www.w3.org/2000/svg">
    <path d="M21.7 14.42c-1.336 5.356-6.761 8.616-12.12 7.281C4.224 20.365.963 14.94 2.3 9.582 3.634 4.224 9.062.963 14.418 2.3c5.358 1.337 8.619 6.762 7.283 12.12z" fill="#F5922F"/>
    <path d="M16.345 10.57c.19-1.332-.779-2.047-2.104-2.524l.43-1.802-1.05-.273-.419 1.754a46.78 46.78 0 00-.84-.207l.421-1.766-1.048-.274-.43 1.802a33.706 33.706 0 01-.671-.164l.002-.006-1.448-.377-.28 1.171s.78.187.762.198c.426.112.503.405.49.638l-.49 2.054c.03.007.067.019.11.037l-.112-.029-.686 2.876c-.052.135-.183.337-.48.26.01.016-.764-.199-.764-.199l-.521 1.257 1.366.356c.254.066.503.136.748.201l-.434 1.823 1.048.274.43-1.804c.287.082.565.156.837.227l-.429 1.796 1.05.273.434-1.82c1.79.354 3.136.212 3.703-1.48.456-1.363-.023-2.15-.965-2.662.686-.165 1.202-.637 1.34-1.61zm-2.398 3.514c-.324 1.363-2.519.627-3.23.442l.576-2.415c.711.185 2.993.552 2.654 1.974v-.001zm.324-3.534c-.295 1.239-2.122.61-2.714.455l.523-2.19c.592.154 2.5.441 2.192 1.735h-.001z" fill="#fff"/>
</svg>
